assets/shibuya/logo.svg

<svg width="64" height="64" viewBox="0 0 64 64" fill="none" xmlns="http://www.w3.org/2000/svg">
<rect width="64" height="64" fill="white"/>
<path d="M41.4165 20.4552C38.0304 21.41 33.0339 23.4069 28.4571 27.5003C23.8575 31.7847 26.9801 35.6057 27.0124 35.6436C27.0124 35.6436 25.3268 32.5668 29.4036 28.7759C29.4553 28.7311 34.6596 24.2826 42.2283 22.1488C43.1933 21.8767 44.1689 21.6502 45.1279 21.4757L45.1946 21.4637L46.413 19.509L46.1139 19.53C46.095 19.5315 44.1934 19.6722 41.4165 20.4552Z" fill="#5928B1"/>
<path d="M46.6257 14.9774C45.846 14.328 45.0673 13.814 45.0595 13.8089L45.0125 13.7786L44.9572 13.785C44.9362 13.7877 42.8352 14.0436 39.9415 14.8595C34.7643 16.3189 27.8016 19.3122 24.0314 25.2797C22.2406 27.9906 23.6819 31.2342 23.6819 31.2342L23.6385 30.4086C23.6338 30.321 23.3864 21.5762 41.4975 16.4694C43.0828 16.0223 44.7854 15.6104 46.5588 15.244L46.8693 15.18L46.6257 14.9774Z" fill="#764BC4"/>
<path d="M47.7205 16.1191C47.6971 16.1216 45.3145 16.3725 41.9952 17.3082C38.4822 18.2989 33.3669 20.2199 28.9499 23.744C26.3454 25.7466 24.6969 28.1626 24.427 30.3728C24.2947 31.4516 25.572 33.7412 25.572 33.7412L25.3034 32.9279C25.2911 32.8909 24.1498 29.1865 29.9337 24.8883C33.1746 22.4794 36.5521 20.8308 40.5619 19.7003C42.629 19.1175 44.6098 18.7346 46.7993 18.3296L46.8764 18.3154L46.9099 18.2447C47.0752 17.8937 47.864 16.3565 47.8723 16.3411L48.0002 16.0908L47.7205 16.1191Z" fill="#764BC4"/>
<path d="M22.407 27.366C22.6252 23.8951 25.281 20.6881 30.3067 17.8311C32.9551 16.1945 35.9156 14.9087 39.1057 14.0091C41.8112 13.2462 44.0981 13.0184 44.0981 13.0184L42.259 11.7019C42.242 11.7039 40.5468 11.9101 38.1243 12.5932C22.5909 16.973 20.6659 24.5192 20.8377 27.5525C21.1386 32.8412 27.4309 36.6023 27.4309 36.6023C27.4309 36.6023 22.0823 32.5377 22.407 27.366Z" fill="#BBA5E1"/>
<path d="M22.5996 43.3663C25.9858 42.4115 30.9823 40.4145 35.5591 36.3211C40.1586 32.0367 37.0361 28.2157 37.0038 28.1778C37.0038 28.1778 38.6894 31.2546 34.6125 35.0456C34.5608 35.0904 29.3566 39.5388 21.7879 41.6726C20.8228 41.9447 19.8473 42.1712 18.8883 42.3457L18.8216 42.3577L17.6031 44.3124L17.9023 44.2914C17.9212 44.2899 19.8228 44.1492 22.5996 43.3663Z" fill="#5928B1"/>
<path d="M17.3905 48.844C18.1701 49.4935 18.9488 50.0074 18.9566 50.0125L19.0036 50.0428L19.0589 50.0364C19.0799 50.0337 21.1809 49.7778 24.0746 48.9619C29.2518 47.5025 36.2145 44.5092 39.9847 38.5417C41.7755 35.8308 40.3342 32.5873 40.3342 32.5873L40.3777 33.4128C40.3823 33.5004 40.6297 42.2452 22.5187 47.352C20.9333 47.7991 19.2308 48.211 17.4573 48.5774L17.1468 48.6414L17.3905 48.844Z" fill="#764BC4"/>
<path d="M16.2957 47.7023C16.3191 47.6998 18.7017 47.4489 22.021 46.5132C25.534 45.5225 30.6493 43.6016 35.0663 40.0774C37.6708 38.0748 39.3192 35.6588 39.5891 33.4486C39.7215 32.3698 38.4442 30.0802 38.4442 30.0802L38.7128 30.8935C38.725 30.9305 39.8664 34.6349 34.0825 38.9331C30.8416 41.342 27.4641 42.9906 23.4543 44.1211C21.3871 44.7039 19.4064 45.0868 17.2169 45.4918L17.1397 45.506L17.1063 45.5767C16.9409 45.9277 16.1522 47.4649 16.1439 47.4803L16.016 47.7306L16.2957 47.7023Z" fill="#764BC4"/>
<path d="M41.6092 36.4554C41.391 39.9263 38.7352 43.1333 33.7095 45.9904C31.061 47.627 28.1006 48.9127 24.9105 49.8123C22.205 50.5752 19.918 50.803 19.918 50.803L21.7572 52.1195C21.7742 52.1175 23.4694 51.9113 25.8918 51.2282C41.4253 46.8484 43.3503 39.3022 43.1785 36.2689C42.8776 30.9802 36.5853 27.2191 36.5853 27.2191C36.5853 27.2191 41.9339 31.2838 41.6092 36.4554Z" fill="#BBA5E1"/>
</svg>

<svg width="64" height="64" fill="none" xmlns="http://www.w3.org/2000/svg">
    <path fill="#24006D" d="M0 0h64v64H0z"/>
    <path d="M41.416 20.455c-3.386.955-8.382 2.952-12.959 7.045-4.6 4.285-1.477 8.106-1.445 8.144 0 0-1.685-3.077 2.392-6.868.051-.045 5.256-4.493 12.824-6.627.965-.272 1.94-.499 2.9-.673l.067-.012 1.218-1.955-.3.021c-.018.002-1.92.142-4.697.925z" fill="#5928B1"/>
    <path d="M46.626 14.977a19.781 19.781 0 00-1.566-1.168l-.047-.03-.056.006c-.02.003-2.122.259-5.016 1.075-5.177 1.459-12.14 4.452-15.91 10.42-1.79 2.71-.35 5.954-.35 5.954l-.043-.825c-.004-.088-.252-8.833 17.86-13.94a73.655 73.655 0 015.06-1.225l.311-.064-.243-.203z" fill="#764BC4"/>
    <path d="M47.72 16.12c-.023.002-2.405.252-5.725 1.188-3.513.99-8.628 2.912-13.045 6.436-2.605 2.003-4.253 4.419-4.523 6.629-.132 1.079 1.145 3.368 1.145 3.368l-.269-.813c-.012-.037-1.153-3.741 4.63-8.04 3.242-2.409 6.62-4.057 10.629-5.188 2.067-.582 4.048-.965 6.237-1.37l.077-.015.034-.07c.165-.351.954-1.889.962-1.904l.128-.25-.28.028z" fill="#764BC4"/>
    <path d="M22.407 27.366c.218-3.47 2.874-6.678 7.9-9.535 2.648-1.636 5.609-2.922 8.799-3.822a32.368 32.368 0 014.992-.99l-1.839-1.317c-.017.002-1.712.208-4.135.891-15.533 4.38-17.458 11.926-17.286 14.96.3 5.288 6.593 9.05 6.593 9.05s-5.349-4.065-5.024-9.237z" fill="#BBA5E1"/>
    <path d="M22.6 43.366c3.386-.955 8.382-2.952 12.96-7.045 4.599-4.284 1.476-8.105 1.444-8.143 0 0 1.685 3.077-2.392 6.868-.051.044-5.255 4.493-12.824 6.627a31.54 31.54 0 01-2.9.673l-.066.012-1.219 1.954.3-.02c.018-.002 1.92-.143 4.697-.926z" fill="#5928B1"/>
    <path d="M17.39 48.844a19.74 19.74 0 001.567 1.169l.047.03.055-.007c.02-.002 2.122-.258 5.016-1.074 5.177-1.46 12.14-4.453 15.91-10.42 1.79-2.711.35-5.955.35-5.955l.043.826c.004.087.252 8.832-17.86 13.939a73.659 73.659 0 01-5.06 1.225l-.311.064.244.203z" fill="#764BC4"/>
    <path d="M16.296 47.702c.023-.002 2.406-.253 5.725-1.189 3.513-.99 8.628-2.911 13.045-6.436 2.605-2.002 4.253-4.418 4.523-6.628.133-1.08-1.145-3.369-1.145-3.369l.269.814c.012.037 1.153 3.74-4.63 8.04-3.241 2.408-6.619 4.057-10.629 5.187-2.067.583-4.048.966-6.237 1.37l-.077.015-.034.07a132.92 132.92 0 01-.962 1.904l-.128.25.28-.028z" fill="#764BC4"/>
    <path d="M41.61 36.455c-.219 3.471-2.875 6.678-7.9 9.535-2.649 1.637-5.61 2.923-8.8 3.822-2.705.763-4.992.991-4.992.991l1.84 1.317c.016-.002 1.711-.209 4.134-.892 15.533-4.38 17.458-11.926 17.287-14.96-.301-5.288-6.594-9.049-6.594-9.049s5.349 4.065 5.024 9.236z" fill="#BBA5E1"/>
</svg>
